X: 3
T: The Raggle Taggle Gypsies
R: polka
M: 2/4
L: 1/8
K: Dmaj
BA|GEFD|E2 BA|GEFD|E3 B |e2e2|f3e|dBcA|B4|
d2d2|e2Bc|dcBA|G2EF|GFGA|BdBA|GEFD|E4|


Tune 2681	Setting 2681

